Cropped/OP.svg

<?xml version="1.0" encoding="UTF-8"?>
<svg width="59px" height="28px" viewBox="0 0 59 28" version="1.1" xmlns="http://www.w3.org/2000/svg" xmlns:xlink="http://www.w3.org/1999/xlink">
    <!-- Generator: Sketch 52.3 (67297) - http://www.bohemiancoding.com/sketch -->
    <title>Cropped/OP</title>
    <desc>Created with Sketch.</desc>
    <g id="Page-1" stroke="none" stroke-width="1" fill="none" fill-rule="evenodd">
        <g id="Optical/OP" transform="translate(0.000000, -11.000000)">
            <g id="Cropped/OP" transform="translate(0.000000, 11.000000)">
                <path d="M40.828,22.225 C36.757,22.225 35.4,19.25 35.4,16.3333333 L35.4,11.7833333 C35.4,8.80833333 36.757,5.83333333 40.828,5.83333333 C44.899,5.83333333 46.256,8.80833333 46.256,11.725 L46.256,16.275 C46.197,19.25 44.84,22.225 40.828,22.225 Z M44.722,11.7833333 C44.722,9.275 43.719,7.23333333 40.769,7.23333333 C37.819,7.23333333 36.816,9.33333333 36.816,11.7833333 L36.816,16.3333333 C36.816,18.8416667 37.819,20.8833333 40.769,20.8833333 C43.719,20.8833333 44.722,18.7833333 44.722,16.3333333 L44.722,11.7833333 Z M53.749,15.4583333 L49.973,15.4583333 L49.973,21.4666667 C49.973,21.875 49.678,22.1666667 49.265,22.1666667 C48.852,22.1666667 48.557,21.875 48.557,21.4666667 L48.557,6.76666667 C48.557,6.35833333 48.911,6.06666667 49.265,6.06666667 L53.513,6.06666667 C57.289,6.06666667 58.646,8.225 58.646,10.2666667 L58.646,11.375 C58.646,13.7666667 56.817,15.4583333 53.749,15.4583333 Z M57.171,10.2666667 C57.171,8.98333333 56.345,7.40833333 53.454,7.40833333 L49.973,7.40833333 L49.973,14.175 L53.69,14.175 C56.05,14.175 57.171,12.8916667 57.171,11.375 L57.171,10.2666667 Z" id="Shape" fill="#6E6E6E" fill-rule="nonzero"></path>
                <path d="M17.011211,27.8126158 C15.8654746,28.0556721 12.512415,28.0642004 11.3755074,27.8269506 C5.54332324,26.6098909 1.04250002,21.9649301 0.111832848,16.2025559 C-0.11375955,14.8057724 0.0176617692,11.8798996 0.365168226,10.5624541 C1.76502109,5.25541114 6.18725631,1.19850517 11.686697,0.176217016 C13.3457015,-0.132172648 16.0092765,-0.0256396489 17.6917948,0.416403347 C20.0425271,1.03400517 22.1791908,2.21603333 23.934062,3.86970048 C25.2239826,5.08523414 26.0517514,6.19666846 26.8279943,7.75535961 C28.9250148,11.9661687 28.8058572,16.8379739 26.5062307,20.9103965 C24.5411685,24.3903391 20.9962904,26.9672188 17.011211,27.8126158 Z M12.5886312,8.63196261 C7.03919271,5.82989063 2.84771828,10.5225156 3.08478146,14.0503744 C3.10886644,18.5015658 7.95595476,21.8016878 12.5886312,19.3904107 L12.5886312,24.9801125 L15.5602381,24.9693441 L15.6073048,19.3680375 C21.4481513,22.0914085 25.313272,17.497326 25.2438774,14.0517079 C25.1721487,9.60736476 20.6719131,6.14829146 15.6073048,8.63195211 L15.6073048,3.01988649 L12.6742355,3.01988649 L12.5886312,8.63196261 Z M9.44845296,10.7436129 C14.2010587,11.2695404 13.3269265,17.2549184 9.4309748,17.3458274 C4.84015771,17.2340782 4.85188927,10.7429794 9.44845296,10.7436129 Z M19.1906804,10.6499623 C23.6118194,11.1418137 23.0995507,17.2249677 18.9808634,17.3460992 C13.9258732,16.691213 14.9563295,10.5303288 19.1906804,10.6499623 Z" id="OP" fill="#FF6A10" opacity="0.98999999"></path>
            </g>
        </g>
    </g>
</svg>

<svg width="59" height="28" xmlns="http://www.w3.org/2000/svg"><g fill="none" fill-rule="evenodd"><path d="M40.828 22.225c-4.071 0-5.428-2.975-5.428-5.892v-4.55c0-2.975 1.357-5.95 5.428-5.95s5.428 2.975 5.428 5.892v4.55c-.059 2.975-1.416 5.95-5.428 5.95zm3.894-10.442c0-2.508-1.003-4.55-3.953-4.55s-3.953 2.1-3.953 4.55v4.55c0 2.509 1.003 4.55 3.953 4.55s3.953-2.1 3.953-4.55v-4.55zm9.027 3.675h-3.776v6.009c0 .408-.295.7-.708.7s-.708-.292-.708-.7v-14.7c0-.409.354-.7.708-.7h4.248c3.776 0 5.133 2.158 5.133 4.2v1.108c0 2.392-1.829 4.083-4.897 4.083zm3.422-5.191c0-1.284-.826-2.859-3.717-2.859h-3.481v6.767h3.717c2.36 0 3.481-1.283 3.481-2.8v-1.108z" fill="#6E6E6E" fill-rule="nonzero"/><path d="M17.011 27.813c-1.146.243-4.499.251-5.635.014C5.543 26.61 1.043 21.965.112 16.203c-.226-1.397-.094-4.323.253-5.64C1.765 5.254 6.187 1.198 11.687.175c1.659-.308 4.322-.202 6.005.24a14.42 14.42 0 0 1 6.242 3.454c1.29 1.215 2.118 2.327 2.894 3.885 2.097 4.211 1.978 9.083-.322 13.155-1.965 3.48-5.51 6.057-9.495 6.903zM12.59 8.632c-5.55-2.802-9.741 1.89-9.504 5.418.024 4.452 4.871 7.752 9.504 5.34v5.59l2.971-.01.047-5.602c5.841 2.723 9.706-1.87 9.637-5.316-.072-4.445-4.572-7.904-9.637-5.42V3.02h-2.933l-.085 5.612zm-3.14 2.112c4.752.526 3.878 6.51-.018 6.602-4.59-.112-4.58-6.603.017-6.602zm9.742-.094c4.42.492 3.909 6.575-.21 6.696-5.055-.655-4.025-6.816.21-6.696z" fill="#FF6A10" opacity=".99"/></g></svg>
